; G-Code generated by Simplify3D(R) Version 3.0.2
; ÁùÔÂ 1, 2017 at 10:39:52 ÉÏÎç
; Settings Summary
;   processName,Process1
;   applyToModels,B
;   profileName,FORMBOT T-Rex 2 (modified)
;   profileVersion,2017-04-30 10:02:05
;   baseProfile,Default
;   printMaterial,PLA
;   printQuality,Medium
;   printExtruders,
;   extruderName,Extruder 1,Extruder 2
;   extruderToolheadNumber,0,1
;   extruderDiameter,0.4,0.4
;   extruderAutoWidth,0,0
;   extruderWidth,0.4,0.4
;   extrusionMultiplier,0.9,0.9
;   extruderUseRetract,1,1
;   extruderRetractionDistance,3,3
;   extruderExtraRestartDistance,0,0
;   extruderRetractionZLift,0,0
;   extruderRetractionSpeed,1800,1800
;   extruderUseCoasting,0,0
;   extruderCoastingDistance,0.2,0.2
;   extruderUseWipe,0,0
;   extruderWipeDistance,5,5
;   primaryExtruder,0
;   layerHeight,0.2
;   topSolidLayers,3
;   bottomSolidLayers,3
;   perimeterOutlines,2
;   printPerimetersInsideOut,1
;   startPointOption,2
;   startPointOriginX,0
;   startPointOriginY,0
;   startPointOriginZ,300
;   sequentialIslands,0
;   spiralVaseMode,0
;   firstLayerHeightPercentage,100
;   firstLayerWidthPercentage,150
;   firstLayerUnderspeed,0.5
;   useRaft,0
;   raftExtruder,1
;   raftLayers,3
;   raftOffset,3
;   raftSeparationDistance,0
;   raftInfill,85
;   disableRaftBaseLayers,1
;   useSkirt,1
;   skirtExtruder,999
;   skirtLayers,1
;   skirtOutlines,2
;   skirtOffset,4
;   usePrimePillar,0
;   primePillarExtruder,999
;   primePillarWidth,12
;   primePillarLocation,0
;   primePillarSpeedMultiplier,1
;   useOozeShield,0
;   oozeShieldExtruder,999
;   oozeShieldOffset,2
;   oozeShieldOutlines,1
;   oozeShieldSidewallShape,1
;   oozeShieldSidewallAngle,30
;   oozeShieldSpeedMultiplier,1
;   infillExtruder,0
;   internalInfillPattern,Rectilinear
;   externalInfillPattern,Rectilinear
;   infillPercentage,10
;   outlineOverlapPercentage,15
;   infillExtrusionWidthPercentage,100
;   minInfillLength,5
;   infillLayerInterval,1
;   infillAngles,45,-45
;   overlapInfillAngles,0
;   generateSupport,0
;   supportExtruder,1
;   supportInfillPercentage,30
;   supportExtraInflation,0
;   denseSupportLayers,0
;   denseSupportInfillPercentage,70
;   supportLayerInterval,1
;   supportHorizontalPartOffset,0.3
;   supportUpperSeparationLayers,1
;   supportLowerSeparationLayers,1
;   supportType,0
;   supportGridSpacing,4
;   maxOverhangAngle,45
;   supportAngles,0
;   temperatureName,Extruder 1 Temperature,Extruder 2 Temperature
;   temperatureNumber,0,1
;   temperatureSetpointCount,1,1
;   temperatureSetpointLayers,1,1
;   temperatureSetpointTemperatures,190,190
;   temperatureStabilizeAtStartup,1,1
;   temperatureHeatedBed,0,0
;   temperatureRelayBetweenLayers,0,0
;   temperatureRelayBetweenLoops,0,0
;   fanLayers,1,5
;   fanSpeeds,50,100
;   blipFanToFullPower,0
;   adjustSpeedForCooling,1
;   minSpeedLayerTime,15
;   minCoolingSpeedSlowdown,20
;   increaseFanForCooling,0
;   minFanLayerTime,45
;   maxCoolingFanSpeed,100
;   increaseFanForBridging,0
;   bridgingFanSpeed,100
;   use5D,1
;   relativeEdistances,0
;   allowEaxisZeroing,1
;   independentExtruderAxes,0
;   includeM10123,0
;   stickySupport,1
;   applyToolheadOffsets,0
;   gcodeXoffset,0
;   gcodeYoffset,0
;   gcodeZoffset,0
;   overrideMachineDefinition,1
;   machineTypeOverride,0
;   strokeXoverride,400
;   strokeYoverride,400
;   strokeZoverride,500
;   originOffsetXoverride,0
;   originOffsetYoverride,0
;   originOffsetZoverride,0
;   homeXdirOverride,-1
;   homeYdirOverride,-1
;   homeZdirOverride,-1
;   flipXoverride,1
;   flipYoverride,-1
;   flipZoverride,1
;   toolheadOffsets,0,0|0,0|0,0|0,0|0,0|0,0
;   overrideFirmwareConfiguration,1
;   firmwareTypeOverride,RepRap (Marlin/Repetier/Sprinter)
;   GPXconfigOverride,r2
;   baudRateOverride,250000
;   overridePrinterModels,0
;   printerModelsOverride
;   startingGcode,;M218 T1 X0 Y0 Z0,;M500,T0,G28 ; home all axes,M420 S1,G1 X-42 F8000,G92 E0,G1 E5 F300,G1 X0 F5000,G1 X-40,G1 X0,G1 X-40,G1 X0,G1 X-40,G1 X150 ,G1 Y200 F5000
;   layerChangeGcode,
;   retractionGcode,
;   toolChangeGcode,
;   endingGcode,G28 X0 Y0,M104 S0 T1 ; turn off extruder,M104 S0 T0,M140 S0 ; turn off bed,G28 X0,M106 S127,M84 ; disable motors
;   createX3G,0
;   celebration,0
;   celebrationSong,Random Song
;   createMB5G,0
;   postProcessing,
;   defaultSpeed,3600
;   outlineUnderspeed,0.5
;   solidInfillUnderspeed,0.8
;   supportUnderspeed,0.8
;   rapidXYspeed,4800
;   rapidZspeed,1000
;   minBridgingArea,50
;   bridgingExtraInflation,0
;   bridgingExtrusionMultiplier,1
;   bridgingSpeedMultiplier,1
;   filamentDiameter,1.75
;   filamentPricePerKg,46
;   filamentDensity,1.25
;   useMinPrintHeight,0
;   minPrintHeight,0
;   useMaxPrintHeight,0
;   maxPrintHeight,0
;   useDiaphragm,0
;   diaphragmLayerInterval,20
;   robustSlicing,1
;   mergeAllIntoSolid,0
;   onlyRetractWhenCrossingOutline,1
;   retractBetweenLayers,1
;   useRetractionMinTravel,0
;   retractionMinTravel,3
;   retractWhileWiping,0
;   onlyWipeOutlines,1
;   avoidCrossingOutline,0
;   maxMovementDetourFactor,3
;   toolChangeRetractionDistance,35
;   toolChangeExtraRestartDistance,-0.5
;   toolChangeRetractionSpeed,600
;   allowThinWallGapFill,1
;   thinWallAllowedOverlapPercentage,10
;   horizontalSizeCompensation,0
G90
M82
M106 S127
M104 S190 T0
M109 S190 T0
M104 S190 T1
M109 S190 T1
M218 T1 X442 Y0 Z0
T0
G28 ; home all axes
M420 S1
G1 X-42 F8000
G92 E0
G1 E5 F300
G1 X0 F5000
G1 X-40
G1 X0
G1 X-40
G1 X0
G1 X-40
G1 X150 
G1 Y200 F5000
G92 E0
G1 E-3.0000 F1800
G1 Z0.200 F1000
; layer 1, Z = 0.2
T0
; tool H0.200 W0.600
; skirt
G1 X182.313 Y185.050 F4800
G1 E0.0000 F540
G92 E0
G1 X185.050 Y182.313 E0.1738 F1800
G1 X185.565 Y182.100 E0.1988
G1 X214.435 Y182.100 E1.4951
G1 X214.950 Y182.313 E1.5201
G1 X217.687 Y185.050 E1.6939
G1 X217.900 Y185.565 E1.7189
G1 X217.900 Y214.435 E3.0153
G1 X217.687 Y214.950 E3.0403
G1 X214.950 Y217.687 E3.2141
G1 X214.435 Y217.900 E3.2391
G1 X185.565 Y217.900 E4.5354
G1 X185.050 Y217.687 E4.5604
G1 X182.313 Y214.950 E4.7342
G1 X182.100 Y214.435 E4.7592
G1 X182.100 Y185.565 E6.0556
G1 X182.313 Y185.050 E6.0806
G92 E0
G1 E-35.0000 F600
T1
; tool H0.200 W0.600
; skirt
G1 X182.652 Y185.277 F4800
G92 E0
G1 X185.277 Y182.652 E0.1667 F1800
G1 X185.644 Y182.500 E0.1845
G1 X214.356 Y182.500 E1.4737
G1 X214.723 Y182.652 E1.4916
G1 X217.348 Y185.277 E1.6582
G1 X217.500 Y185.644 E1.6761
G1 X217.500 Y214.356 E2.9653
G1 X217.348 Y214.723 E2.9831
G1 X214.723 Y217.348 E3.1498
G1 X214.356 Y217.500 E3.1676
G1 X185.644 Y217.500 E4.4568
G1 X185.277 Y217.348 E4.4747
G1 X182.652 Y214.723 E4.6413
G1 X182.500 Y214.356 E4.6592
G1 X182.500 Y185.644 E5.9484
G1 X182.652 Y185.277 E5.9662
G92 E0
G1 E-35.0000 F600
T0
; tool H0.200 W0.600
; skirt
G1 X182.991 Y185.503 F4800
G1 E-0.5000 F600
G92 E0
G1 X185.503 Y182.991 E0.1595 F1800
G1 X185.724 Y182.900 E0.1702
G1 X214.276 Y182.900 E1.4523
G1 X214.497 Y182.991 E1.4630
G1 X217.009 Y185.503 E1.6225
G1 X217.100 Y185.724 E1.6332
G1 X217.100 Y214.276 E2.9152
G1 X217.009 Y214.497 E2.9260
G1 X214.497 Y217.009 E3.0855
G1 X214.276 Y217.100 E3.0962
G1 X185.724 Y217.100 E4.3782
G1 X185.503 Y217.009 E4.3889
G1 X182.991 Y214.497 E4.5484
G1 X182.900 Y214.276 E4.5592
G1 X182.900 Y185.724 E5.8412
G1 X182.991 Y185.503 E5.8519
G92 E0
G1 E-35.0000 F600
T1
; tool H0.200 W0.600
; skirt
G1 X183.330 Y185.730 F4800
G1 E-0.5000 F600
G92 E0
G1 X185.730 Y183.330 E0.1524 F1800
G1 X185.803 Y183.300 E0.1559
G1 X214.197 Y183.300 E1.4308
G1 X214.270 Y183.330 E1.4344
G1 X216.670 Y185.730 E1.5868
G1 X216.700 Y185.803 E1.5903
G1 X216.700 Y214.197 E2.8652
G1 X216.670 Y214.270 E2.8688
G1 X214.270 Y216.670 E3.0212
G1 X214.197 Y216.700 E3.0247
G1 X185.803 Y216.700 E4.2996
G1 X185.730 Y216.670 E4.3032
G1 X183.330 Y214.270 E4.4556
G1 X183.300 Y214.197 E4.4591
G1 X183.300 Y185.803 E5.7340
G1 X183.330 Y185.730 E5.7376
G92 E0
G1 E-35.0000 F600
T0
; tool H0.200 W0.600
; inner perimeter
G1 X188.400 Y188.400 F4800
G1 E-0.5000 F600
G92 E0
G1 X211.600 Y188.400 E1.0417 F1350
G1 X211.600 Y211.600 E2.0834
G1 X188.400 Y211.600 E3.1251
G1 X188.400 Y188.400 E4.1668
; outer perimeter
G1 X187.800 Y187.800 F4800
G92 E0
G1 X212.200 Y187.800 E1.0956 F900
G1 X212.200 Y212.200 E2.1912
G1 X187.800 Y212.200 E3.2868
G1 X187.800 Y187.800 E4.3824
; inner perimeter
G1 X191.600 Y191.600 F4800
G92 E0
G1 X191.600 Y208.400 E0.7543 F1350
G1 X208.400 Y208.400 E1.5087
G1 X208.400 Y191.600 E2.2630
G1 X191.600 Y191.600 E3.0174
; outer perimeter
G1 X192.200 Y192.200 F4800
G92 E0
G1 X192.200 Y207.800 E0.7005 F900
G1 X207.800 Y207.800 E1.4009
G1 X207.800 Y192.200 E2.1014
G1 X192.200 Y192.200 E2.8018
; solid layer
G1 X191.939 Y191.090 F4800
G92 E0
G1 X194.119 Y188.910 E0.1384 F1440
G1 X194.968 Y188.910 E0.1765
G1 X192.788 Y191.090 E0.3150
G1 X193.637 Y191.090 E0.3531
G1 X195.817 Y188.910 E0.4915
G1 X196.665 Y188.910 E0.5296
G1 X194.485 Y191.090 E0.6680
G1 X195.334 Y191.090 E0.7061
G1 X197.514 Y188.910 E0.8445
G1 X198.362 Y188.910 E0.8826
G1 X196.182 Y191.090 E1.0211
G1 X197.031 Y191.090 E1.0592
G1 X199.211 Y188.910 E1.1976
G1 X200.059 Y188.910 E1.2357
G1 X197.879 Y191.090 E1.3741
G1 X198.728 Y191.090 E1.4122
G1 X200.908 Y188.910 E1.5507
G1 X201.756 Y188.910 E1.5888
G1 X199.576 Y191.090 E1.7272
G1 X200.425 Y191.090 E1.7653
G1 X202.605 Y188.910 E1.9037
G1 X203.453 Y188.910 E1.9418
G1 X201.273 Y191.090 E2.0803
G1 X202.122 Y191.090 E2.1184
G1 X204.302 Y188.910 E2.2568
G1 X205.150 Y188.910 E2.2949
G1 X202.970 Y191.090 E2.4333
G1 X203.819 Y191.090 E2.4714
G1 X205.999 Y188.910 E2.6098
G1 X206.847 Y188.910 E2.6479
G1 X204.667 Y191.090 E2.7864
G1 X205.516 Y191.090 E2.8245
G1 X207.696 Y188.910 E2.9629
G1 X208.544 Y188.910 E3.0010
G1 X206.364 Y191.090 E3.1394
G1 X207.213 Y191.090 E3.1775
G1 X209.393 Y188.910 E3.3160
G1 X210.242 Y188.910 E3.3541
G1 X208.062 Y191.090 E3.4925
G1 X208.910 Y191.090 E3.5306
G1 X208.910 Y191.090 E3.5306
G1 X211.090 Y188.910 E3.6690
G1 X211.090 Y189.759 E3.7071
G1 X208.910 Y191.939 E3.8456
G1 X208.910 Y192.787 E3.8837
G1 X211.090 Y190.607 E4.0221
G1 X211.090 Y191.456 E4.0602
G1 X208.910 Y193.636 E4.1986
G1 X208.910 Y194.484 E4.2367
G1 X211.090 Y192.304 E4.3751
G1 X211.090 Y193.153 E4.4132
G1 X208.910 Y195.333 E4.5517
G1 X208.910 Y196.181 E4.5898
G1 X211.090 Y194.001 E4.7282
G1 X211.090 Y194.850 E4.7663
G1 X208.910 Y197.030 E4.9047
G1 X208.910 Y197.878 E4.9428
G1 X211.090 Y195.698 E5.0813
G1 X211.090 Y196.547 E5.1194
G1 X208.910 Y198.727 E5.2578
G1 X208.910 Y199.575 E5.2959
G1 X211.090 Y197.395 E5.4343
G1 X211.090 Y198.244 E5.4724
G1 X208.910 Y200.424 E5.6108
G1 X208.910 Y201.272 E5.6489
G1 X211.090 Y199.092 E5.7874
G1 X211.090 Y199.941 E5.8255
G1 X208.910 Y202.121 E5.9639
G1 X208.910 Y202.969 E6.0020
G1 X211.090 Y200.789 E6.1404
G1 X211.090 Y201.638 E6.1785
G1 X208.910 Y203.818 E6.3170
G1 X208.910 Y204.666 E6.3551
G1 X211.090 Y202.486 E6.4935
G1 X211.090 Y203.335 E6.5316
G1 X208.910 Y205.515 E6.6700
G1 X208.910 Y206.364 E6.7081
G1 X211.090 Y204.184 E6.8466
G1 X211.090 Y205.032 E6.8847
G1 X208.910 Y207.212 E7.0231
G1 X208.910 Y208.061 E7.0612
G1 X211.090 Y205.881 E7.1996
G1 X211.090 Y206.729 E7.2377
G1 X208.910 Y208.909 E7.3761
G1 X211.090 Y210.972 F4800
G92 E0
G1 X210.972 Y211.090 E0.0075 F1440
G1 X210.123 Y211.090 E0.0456
G1 X211.090 Y210.123 E0.1070
G1 X211.090 Y209.275 E0.1451
G1 X209.275 Y211.090 E0.2604
G1 X208.426 Y211.090 E0.2985
G1 X211.090 Y208.426 E0.4676
G1 X211.090 Y207.578 E0.5057
G1 X207.578 Y211.090 E0.7288
G1 X206.729 Y211.090 E0.7669
G1 X208.909 Y208.910 E0.9053
G1 X208.061 Y208.910 E0.9434
G1 X205.881 Y211.090 E1.0818
G1 X205.032 Y211.090 E1.1199
G1 X207.212 Y208.910 E1.2583
G1 X206.364 Y208.910 E1.2964
G1 X204.184 Y211.090 E1.4349
G1 X203.335 Y211.090 E1.4730
G1 X205.515 Y208.910 E1.6114
G1 X204.666 Y208.910 E1.6495
G1 X202.486 Y211.090 E1.7879
G1 X201.638 Y211.090 E1.8260
G1 X203.818 Y208.910 E1.9645
G1 X202.969 Y208.910 E2.0026
G1 X200.789 Y211.090 E2.1410
G1 X199.941 Y211.090 E2.1791
G1 X202.121 Y208.910 E2.3175
G1 X201.272 Y208.910 E2.3556
G1 X199.092 Y211.090 E2.4940
G1 X198.244 Y211.090 E2.5321
G1 X200.424 Y208.910 E2.6706
G1 X199.575 Y208.910 E2.7087
G1 X197.395 Y211.090 E2.8471
G1 X196.547 Y211.090 E2.8852
G1 X198.727 Y208.910 E3.0236
G1 X197.878 Y208.910 E3.0617
G1 X195.698 Y211.090 E3.2002
G1 X194.850 Y211.090 E3.2383
G1 X197.030 Y208.910 E3.3767
G1 X196.181 Y208.910 E3.4148
G1 X194.001 Y211.090 E3.5532
G1 X193.153 Y211.090 E3.5913
G1 X195.333 Y208.910 E3.7298
G1 X194.484 Y208.910 E3.7679
G1 X192.304 Y211.090 E3.9063
G1 X191.456 Y211.090 E3.9444
G1 X193.636 Y208.910 E4.0828
G1 X192.787 Y208.910 E4.1209
G1 X190.607 Y211.090 E4.2593
G1 X189.759 Y211.090 E4.2974
G1 X191.939 Y208.910 E4.4359
G1 X191.090 Y208.910 E4.4740
G1 X188.910 Y211.090 E4.6124
G1 X188.910 Y211.090 E4.6124
G1 X188.910 Y210.242 E4.6505
G1 X191.090 Y208.062 E4.7889
G1 X191.090 Y207.213 E4.8270
G1 X188.910 Y209.393 E4.9655
G1 X188.910 Y208.544 E5.0036
G1 X191.090 Y206.364 E5.1420
G1 X191.090 Y205.516 E5.1801
G1 X188.910 Y207.696 E5.3185
G1 X188.910 Y206.847 E5.3566
G1 X191.090 Y204.667 E5.4951
G1 X191.090 Y203.819 E5.5332
G1 X188.910 Y205.999 E5.6716
G1 X188.910 Y205.150 E5.7097
G1 X191.090 Y202.970 E5.8481
G1 X191.090 Y202.122 E5.8862
G1 X188.910 Y204.302 E6.0246
G1 X188.910 Y203.453 E6.0627
G1 X191.090 Y201.273 E6.2012
G1 X191.090 Y200.425 E6.2393
G1 X188.910 Y202.605 E6.3777
G1 X188.910 Y201.756 E6.4158
G1 X191.090 Y199.576 E6.5542
G1 X191.090 Y198.728 E6.5923
G1 X188.910 Y200.908 E6.7308
G1 X188.910 Y200.059 E6.7689
G1 X191.090 Y197.879 E6.9073
G1 X191.090 Y197.031 E6.9454
G1 X188.910 Y199.211 E7.0838
G1 X188.910 Y198.362 E7.1219
G1 X191.090 Y196.182 E7.2603
G1 X191.090 Y195.334 E7.2984
G1 X188.910 Y197.514 E7.4369
G1 X188.910 Y196.665 E7.4750
G1 X191.090 Y194.485 E7.6134
G1 X191.090 Y193.637 E7.6515
G1 X188.910 Y195.817 E7.7899
G1 X188.910 Y194.968 E7.8280
G1 X191.090 Y192.788 E7.9665
G1 X191.090 Y191.939 E8.0046
G1 X188.910 Y194.119 E8.1430
G1 X188.910 Y193.271 E8.1811
G1 X191.090 Y191.091 E8.3195
G1 X191.090 Y191.090 E8.3196
G1 X191.091 Y191.090 E8.3196
G1 X193.271 Y188.910 E8.4580
G1 X192.422 Y188.910 E8.4961
G1 X188.910 Y192.422 E8.7192
G1 X188.910 Y191.574 E8.7573
G1 X191.574 Y188.910 E8.9264
G1 X190.725 Y188.910 E8.9645
G1 X188.910 Y190.725 E9.0798
G1 X188.910 Y189.877 E9.1179
G1 X189.877 Y188.910 E9.1793
G1 X189.028 Y188.910 E9.2174
G1 X188.910 Y189.028 E9.2249
G92 E0
G1 E-35.0000 F600
; layer 2, Z = 0.2
T1
; tool H0.200 W0.600
; inner perimeter
G1 X194.000 Y194.000 F4800
G1 E-0.5000 F600
G92 E0
G1 X206.000 Y194.000 E0.5388 F1500
G1 X206.000 Y206.000 E1.0776
G1 X194.000 Y206.000 E1.6164
G1 X194.000 Y194.000 E2.1553
; inner perimeter
G1 X193.400 Y193.400 F4800
G92 E0
G1 X206.600 Y193.400 E0.5927 F1200
G1 X206.600 Y206.600 E1.1854
G1 X193.400 Y206.600 E1.7781
G1 X193.400 Y193.400 E2.3708
; outer perimeter
G1 X192.800 Y192.800 F4800
G92 E0
G1 X207.200 Y192.800 E0.6466 F900
G1 X207.200 Y207.200 E1.2932
G1 X192.800 Y207.200 E1.9397
G1 X192.800 Y192.800 E2.5863
; solid layer
G1 X194.510 Y195.308 F4800
G92 E0
G1 X195.308 Y194.510 E0.0507 F1440
G1 X196.156 Y194.510 E0.0888
G1 X194.510 Y196.156 E0.1933
G1 X194.510 Y197.005 E0.2314
G1 X197.005 Y194.510 E0.3898
G1 X197.853 Y194.510 E0.4279
G1 X194.510 Y197.853 E0.6402
G1 X194.510 Y198.702 E0.6783
G1 X198.702 Y194.510 E0.9445
G1 X199.550 Y194.510 E0.9826
G1 X194.510 Y199.550 E1.3026
G1 X194.510 Y200.399 E1.3407
G1 X200.399 Y194.510 E1.7147
G1 X201.247 Y194.510 E1.7528
G1 X194.510 Y201.247 E2.1806
G1 X194.510 Y202.096 E2.2187
G1 X202.096 Y194.510 E2.7004
